X:1
T:The magic flute
T:La Regina della Notte - Der Holle Rache
T:Wolfgang Amadeus Mozart
%%score [ 1 { ( 2 4 ) | ( 3 5 ) } ] ( 6 7 )
L:1/8
Q:1/4=120
M:4/4
K:C
V:1 bass nm="Violoncello" snm="Vc."
V:2 treble nm="Piano" snm="Pf."
V:4 treble 
V:3 bass 
V:5 bass 
V:6 bass transpose=-12 nm="Contrabbassi" snm="Cb."
V:7 bass transpose=-12 
V:1
 z8 |!f! z4 z uE,E,E, | A,3 E, CCTCB, | (A,2 E,2) z4 | vD6 B,^G, | E2 A,6 | v_B,4 ^C3 C | %7
w: |Der Hol- le|Ra- che kocht in mei- nem|Herz- en,|Tod und Ver-|zwei- flung|Tod und Ver|
 D2 E2 F4- | F2 D2 _B,2 (A,2 | ^G,4) z4 | (vC,4 E,2) G,/^F,/G,/A,/ | C6 z G, | %12
w: zwei- flung flam-|* met um mich|her!|Fuhlt nicht durch * * *|dich Sa-|
 (ED)(CB,) (A,G,)(F,E,) | (F,2 D4) z D | (FE)(DC) (B,A,)(G,F,) | (E,2 C4) z2 | z2 uF,2 A,2 C2 | %17
w: ra- * stro * To- * des- *|schmer- zen, Sa-|ra- * stro * To- * des- *|schmer- zen,|So bist du|
 F/F/F/F/ F/F/F/F/ E/E/E/E/ E/E/E/E/ | ^D3 (C D3) (C | B,4) z2 G,2 | C4 TD3 (C/D/ | %21
w: mei- * * * * * * * ne * * * * * * *|Toch- ter nim- mer|mehr. So|bist du * *|
 E4) z2 (!tenuto!G,!tenuto!G,) | C3 (C TD3) (C/D/ | E4) z2{/F} (E/D/E/F/) | .G.G.G.G .G.G.G.G | %25
w: mein mei- ne|Toch- ter nim- mer *|mehr _ _ _ _|_ _ _ _ _ _ _ _|
 C4 z2{/D} (C/B,/C/)D/ | .E.E.E.E .E.E.E.E | A,4 z2{/B,} (A,/G,/A,/B,/) | .C.C.C.G, .D.D.D.G, | %29
w: ||||
 !^!E!^!C!^!E!^!G !^!c!^!G!^!A!^!F | !^!G!^!C!^!E!^!G !^!c!^!G!^!A!^!F | %31
w: ||
 G2 z2 (!tenuto!uC3 !tenuto!C) | D4 F4 | TG,6 (A,B,) | C4 z2{/F} (E/D/E/F/) | .G.G.G.G .G.G.G.G | %36
w: * mei- ne|Toch- ter|nim- mer *|mehr _ _ _ _|_ _ _ _ _ _ _ _|
 C4 z2{/D} (C/B,/C/D/) | .E.E.E.E .E.E.E.E | A,4 z2{/B,} (A,/G,/A,/B,/) | .C.C.C.G, .D.D.D.G, | %40
w: ||||
 !^!E!^!C!^!E!^!G !^!c!^!G!^!A!^!F | !^!G!^!C!^!E!^!G !^!c!^!G!^!A!^!F | G2 z2 C4 | %43
w: ||* so|
 D3 (D _E3) (!tenuto!E | !tenuto!E4) C4 | (G,4 TG,2) (A,B,) | C2 z2 z2 B,2 | C2 z2 z2 B,2 | %48
w: bist du mei- ne|Toch- ter|nim- * mer *|mehr. *||
 C2 A,D F,A,D,F, | B,,2 G,2 F,2 D,2 | C,2 z2 z4 | z4 z2 z uC | C3 C C3 C | (C2 C,2) z2 z C | %54
w: |||Ver-|stos- sen sei auf|e- wig, Ver-|
 C3 C C3 C | (C2 C,2) z2 z C | C3 C C3 C | (C2 C,2) z2 (!tenuto!C,!tenuto!C,) | _B,4 G,4 | %59
w: las- sen sei auf|e- wig, Zer-|trum- mer sei'n auf|e- wig Al- le|Ban- de|
 E,4 A,4 | D,2 z2 z2 z D | (D2 D,2) z2 z D | (D2 D,2) z2 (!tenuto!D!tenuto!D) | %63
w: der Na-|tur Ver-|stos- sen ver-|las- sen und zer-|
 (D2 D,2) z2 (!tenuto!D,!tenuto!D,) | C4 A,4 | ^F,4 B,4 |[Q:1/4=110] E,2 z2 z4 | %67
w: trum- mert al- le|Ben- de|der Na-|tur|
[Q:1/4=100] vE,4 B,4 |[Q:1/4=120] (3(CDC) (3(EFE) (3(CDC) (3(A,B,A,) | %69
w: al- le|Ban- * * * * * * * * * * *|
 (3(^G,A,G,) (3(E,^F,E,) (3(G,A,G,) (3(B,CB,) | (3(CDC) (3(EFE) (3(CDC) (3(A,B,A,) | %71
w: ||
 (3(^G,A,G,) (3(E,^F,)E, (3(G,A,G,) (3(B,CB,) | C2 z2 z4 | z .uA,.C.E .A.E.F.D | E2 z2 z4 | %75
w: ||||
 z .uA,.C.E .A.E.F.D | .E.A,.C.E .A.E.A.G | .F.D.G.F .E.C.F.E | .D.B,.E.D C2 A,2 | %79
w: |||* * * * * de,|
 _B,/B,/B,/B,/ B,/B,/B,/B,/ D/D/D/D/ D/D/D/D/ | F/F/F/F/ D/D/D/D/ _B,/B,/B,/B,/ A,2 | %81
w: al- * * * * * * * le * * * * * * *|Ban- * * * de * * * der * * * Na-|
 ^G,2 z2 z2 !>!vE,2 | !>!^G,4 z2 !>!vG,2 | !>!B,4 z2 uB,2 | D2 B,2 ^G,2 E,2 | (F,8 | E,2) z2 z4 | %87
w: tur, Wenn|nicht durch|dich! Sa-|ra stro wir der-|blas-|sen!|
{/F,} !>!vA,4 z4 |{/A,} !>!vC4 z4 |{/D} !>!vF8- | F8- | F4 D3 (_B, | %92
w: Hort,|Hort,|Hort|_|* Ra- che|
 !tenuto!^G,2) !tenuto!^G,2 z2 z2 | vC8 | z2 A,2 ^G,3 A, | E,4 z4 | z8 | z2 z2 uE4 | A8 |] %99
w: got- ter,|Hort|der Mut- ter|Schwur!||||
V:2
 [C,E,]/A,/[C,E,]/A,/ [C,E,]/A,/[C,E,]/A,/ [C,E,]/A,/[C,E,]/A,/ [C,E,]/A,/[C,E,]/A,/ | %1
 [C,E,]/A,/[C,E,]/A,/ [C,E,]/A,/[C,E,]/A,/ [C,E,]/A,/[C,E,]/A,/ [C,E,]/A,/[C,E,]/A,/ | %2
 [CA] z [A,CE] z [EAc] z [D^GB] z | [CA]2 z2 (c2 B/A/^G/A/) | [B,D^G]2 z2 (d2 c/B/A/B/) | %5
 [CEA]2 z2 (e2 d/c/B/A/) | [DF_B][DFB][DFB][DFB] [EG^c][EGc][EGc][EGc] | %7
 [FAd][FAd][Ae][Ae] [Af] [Af]2 [Af-] | [Bf][Bf][Fd][Fd] [D_B][DB][C^FA][CFA] | %9
 [=B,E^G]2 (=g2 [^fa]2 [=fb]2) | [ec']2 [E,C]2 .E2 .=G2 | .c2 .E2 .G2 .c2 | (ed).c.B .A.G.F.E | %13
 FDFA dFAd | (fe).d.c .B.A.G.F | ECEG cegc | [FAcf]2 F2 A2 c2 | [cf][cf][cf][cf] [ce][ce][ce][ce] | %18
 .[C_e] ([Ce]2 [_Ec]) .[Ce] ([Ce]2 [Ec]) | [DB](G,^F,G, F,G,) z (([B,G] | c3)){dcB} c d3{dcB} (d | %21
 e) x x2 x2 z (G | c3){dcB} c d3{dcB} (d | e).e.e.e .e.e.e.e | %24
 z .[Bdg].[Bdg].[Bdg] .[Bdg].[Bdg].[Bdg].[Bdg] | z [Ec][Ec][Ec] [Ec][Ec][Ec][Ec] | %26
 z .[GBe].[GBe].[GBe] .[GBe].[GBe].[GBe].[GBe] | z [CA][CA][CA] [CA][CA][CA][CA] | %28
 [Ec]2 z2 [Bd]2 z2 | [ce]2 z2 [ceg] z [cfa] z | [ceg]2 z2 [ceg] z [cfa] z | %31
 [ceg]2 z2 [CEc][CEc][CEc][CEc] | [EAd][EAd][EAd][EAd] [Adf][Adf][Adf][Adf] | %33
 [B,DG] [B,DG]2 [B,DG]2 ([B,DG][CEA][DFB]) | [CEc].[Ge].[Ge].[Ge] .[Ge].[Ge].[Ge].[Ge] | %35
 z .[Bdg].[Bdg].[Bdg] .[Bdg].[Bdg].[Bdg].[Bdg] | z [Ec][Ec][Ec] [Ec][Ec][Ec][Ec] | %37
 z .[GBe].[GBe].[GBe] .[GBe].[GBe].[GBe].[GBe] | z [CA][CA][CA] [CA][CA][CA][CA] | %39
 [CG]2 z2 [DG]2 z2 | [EG]2 z2 [ceg] z [cfa] z | [ceg]2 z2 [ceg]2 [cfa]2 | %42
 [ceg]2 z2 [Gc][Gc][Gc][Gc] | [Acd][Acd][Acd][Acd] [Ac_e][Ace][Ace][Ace] | %44
 [Gc=e][Gce][EG][EG] [EGc][EGc][Cce][Cce] | [eg]2 [Gce]>[Gce] [FBdg]2 [FBdg]>[FBdg] | %46
 (c/G/A/B/ c/d/e/f/) (g/f/e/d/) (e/d/c/B/) | (c/G/A/B/ c/d/e/f/) (g/f/e/d/) (e/d/c/B/) | %48
 c/c/e/e/ A/A/c/c/ F/F/A/A/ D/D/F/F/ | B,2 [EGce]2 [FAd]2 [DGBd]2 | [CEGc]2 z2 z4 | %51
 z E,F,G, A,G,A,G, | E, EFG AGAF | z E,F,G, A,G,A,G, | E, EFG AGAF | z E,F,G, A,G,A,G, | %56
 E, EFG AGAF | z E,F,G, A,G,A,G, | %58
 [E,G,]/_B/[E,G,]/B/ [E,G,]/B/[E,G,]/B/ [E,_B,]/G/[E,B,]/G/ [E,B,]/G/[E,B,]/G/ | %59
 [G,A,]/E/[G,A,]/E/ [G,A,]/E/[G,A,]/E/ [G,A,]/A/[G,A,]/A/ [G,A,]/A/[G,A,]/A/ | %60
 [D,F,] .[DF].[EG].[FA] .[G_B].[FA].[GB].[EG] | [DF] [D,F,][E,G,][F,A,] [G,_B,][F,A,][G,B,][E,G,] | %62
 [D,F,] .[DF].[EG].[FA] .[G_B].[FA].[GB].[EG] | [DF] [D,F,][E,G,][F,A,] [G,_B,][F,A,][G,B,][E,G,] | %64
 [^F,A,]/C/[F,A,]/C/ [F,A,]/C/[F,A,]/C/ [F,C]/A/[F,C]/A/ [F,C]/A/[F,C]/A/ | %65
 [A,=B,]/^F/[A,B,]/F/ [A,B,]/F/[A,B,]/F/ [A,B,]/=B/[A,B,]/B/ [A,B,]/B/[A,B,]/B/ | %66
 [^G,E]2 [G,B,E]4 [G,B,E]2 | [G,B,E]2 [E,^G,B,]2 [E,G,B,]2 [E,G,B,]2 | %68
 z2 [E,A,C]2 [E,A,C]2 [E,A,C]2 | z2 [E,^G,B,]2 [E,G,B,]2 [E,G,B,]2 | %70
 z2 [E,A,C]2 [E,A,C]2 [E,A,C]2 | z2 [E,^G,B,]2 [E,G,B,]2 [E,G,B,]2 | C.A.c.e .a.e.f.d | %73
 e2 z2 [CE] z [DF] z | .C.A.c.e .a.e.f.d | e2 z2 [CE] z [DF] z | [CE]2 z2 z2 [EA] z | %77
 [FA] z [DG] z [EG] z [CF] z | [DF] z [B,F] z [CE]2 z2 | %79
 F,/_B,/F,/B,/ F,/B,/F,/B,/ F,/B,/F,/B,/ F,/B,/F,/B,/ | %80
 F,/_B,/F,/B,/ F,/B,/F,/B,/ F,/B,/F,/B,/ ^F,/A,/F,/A,/ | [^G,^G]2 [EGBe]2 [EGBe]2 z2 | %82
 z2 [E^GBe]2 [EGBe]2 z2 | z2 [^GBe^g]2 [GBeg]2 z2 | z8 | z2 A2 ^G2 A2 | [Bde]4 !fermata!z4 | %87
 z2 z (3(E/^F/^G/ A4) | z2 z (3(^G/A/B/ c4) | z4 [ac']4 | [_bd']2 [ac']2 [bd']2 [ac']2 | %91
 [_bd']2 z2 z4 | z2 z3/2 [=Bf^g=b]/ [=Bfg=b]3/2 z/ z/ z [c^fac']/ | [c^fac']4 z4 | z8 | %95
 z4 [Bd^g]4 | (a^gab c'^c'd'^d') | e'2 z2 [^Ge]2 z2 | [Acea]8 |] %99
V:3
 z8 |{E,,^F,,^G,,} .A,,2 .E,,2 .C,,2 .A,,,2 | A,,A,,A,,A,, A,,A,,A,,A,, | %3
 A,,A,,A,,A,, A,,A,,A,,A,, | B,,B,,B,,B,, B,,B,,B,,B,, | C,C,C,C, C,C,C,C, | D,D,D,D, E,E,E,E, | %7
 F,F,^C,C, D,D,D,D, | D,D,D,D, D,D,^D,D, | E,2 (E,2 ^D,2 =D,2) | C,C,C,C, C,C,C,C, | %11
 C,C,C,C, C,C,C,C, | C,C,C,C, C,C,C,C, | C,C,C,C, C,C,C,C, | B,,B,,B,,B,, B,,B,,B,,B,, | %15
 _B,,B,,B,,B,, B,,B,,B,,B,, | A,,2 z2 z4 | A,A,A,A, G,G,G,G, | ^F,F,F,F, F,F,F,F, | %19
 G, (G,^F,G, F,G,=F,D,) | .E,.G,.E,.C, .B,,.D,.B,,.G,, | C, (G,^F,G, F,G,=F,D,) | %22
 .E,.G,.E,.C, .B,,.D,.B,,.G,, | C,.C.C.C .C.C.C.C | B,4 z4 | z .A,.A,.A, .A,.A,.A,.A, | G,4 z4 | %27
 z .F,.F,.F, .F,.F,.F,.F, | E,2 z2 B,2 z2 | C2 z2 z4 | z8 | z4 A,A,A,A, | F,F,F,F, D,D,D,D, | %33
 G,G,G,G, G,,G,,G,,G,, | C,.C.C.C .C.C.C.C | B,4 z4 | z .A,.A,.A, .A,.A,.A,.A, | G,4 z4 | %38
 z .F,.F,.F, .F,.F,.F,.F, | E,2 z2 B,2 z2 | C2 z2 z4 | z8 | z4 E,E,E,E, | F,F,F,F, ^F,F,F,F, | %44
 G,G,G,G, E,E,C,C, | G,,2 z2 G,,2 z2 | C,2 z2 z2 G,,2 | C,2 z2 z2 G,,2 | C,2 A,C F,A,D,F, | %49
 B,,2 C,2 F,,2 G,,2 | C,,2 z2 z4 | z C,D,E, F,E,F,D, | C,2 z2 z4 | z C,D,E, F,E,F,D, | C,2 z2 z4 | %55
 z C,D,E, F,E,F,D, | C,2 z2 z4 | z C,D,E, F,E,F,D, | ^C,C,C,C, C,C,C,C, | ^C,C,C,C, C,C,C,C, | %60
 D,2 z2 z4 | z D,E,F, G,F,G,E, | D,2 z2 z4 | z D,E,F, G,F,G,E, | ^D,D,D,D, D,D,D,D, | %65
 ^D,D,D,D, D,D,D,D, | E,E,^G,E, B,,E,^G,,B,, | E,,2 z2 z4 | E,2 z2 z4 | E,,2 z2 z4 | E,2 z2 z4 | %71
 E,,2 z2 z4 | A,,2 z2 z4 | A,2 z2 A, z A, z | A,2 z2 A, z A, z | A,2 z2 A, z A, z | A,2 z2 z2 C z | %77
 C z G, z C z A, z | B, z ^G, z A,2 z2 | D,D,D,D, D,D,D,D, | D,D,D,D, D,D,^D,D, | E,2 E,2 E,,2 z2 | %82
 z2 E,2 E,,2 z2 | z2 E,2 E,,2 z2 | z8 | z2 D,2 B,,2 A,,2 | ^G,,2 z2 !fermata!z4 | %87
 z2 z (3(E,,/^F,,/^G,,/ A,,4) | z2 z (3(^G,,/A,,/B,,/ C,4) | z4 _E,4 | D,D,_E,E, D,D,E,E, | %91
 D,2 z2 z4 | z2 z3/2 D,/ D,2 z3/2 ^D,/ | ^D,4 z4 | z8 | z4 E,4 | F,6 ^F,2 | E,2 z2 E,2 z2 | A,,8 |] %99
V:4
 x8 | x8 | x8 | x8 | x8 | x8 | x8 | x8 | x8 | x8 | x8 | x8 | x8 | x8 | x8 | x8 | x8 | x8 | x8 | %19
 x8 | G2 z (E G2) z (B, | C) G,^F,G, F,G, z (A, | G2) z (E G2) z B, | CGGG GGGG | [Gd]4 x4 | %25
 [Aec']4 x4 | [EB]4 z4 | [Aec']4 x4 | x8 | x8 | x8 | x8 | x8 | x8 | x8 | [Gd]4 z4 | [Aec']4 x4 | %37
 [EB]4 z4 | [Aec']4 x4 | x8 | x8 | x8 | x8 | x8 | x8 | x8 | x8 | x8 | x8 | x8 | %50
 c/c'/c/c'/ c/c'/c/c'/ c/c'/c/c'/ c/c'/c/c'/ | [Acc']8 | x8 | [Ac]8 | x8 | [Ac]8 | x8 | [Acc']8 | %58
 x8 | x8 | x8 | x8 | x8 | x8 | x8 | x8 | x8 | x8 | x8 | x8 | x8 | x8 | x8 | x8 | x8 | x8 | x8 | %77
 x8 | x8 | x8 | x8 | x8 | x8 | x8 | x8 | z2 [df]4 [df]2 | x8 | x8 | x8 | x8 | x8 | x8 | x8 | x8 | %94
 x8 | x8 | x8 | x8 | x8 |] %99
V:5
 x8 | x8 | x8 | x8 | x8 | x8 | x8 | x8 | x8 | x8 | x8 | x8 | x8 | x8 | x8 | x8 | x8 | x8 | x8 | %19
 x8 | x8 | x8 | x8 | C,2 x6 | x8 | x8 | x8 | x8 | x8 | x8 | x8 | x8 | x8 | x8 | C,2 x6 | x8 | x8 | %37
 x8 | x8 | x8 | x8 | x8 | x8 | x8 | x8 | x8 | x8 | x8 | x8 | x8 | x8 | x8 | x8 | x8 | x8 | x8 | %56
 x8 | x8 | x8 | x8 | x8 | x8 | x8 | x8 | x8 | x8 | x8 | x8 | x8 | x8 | x8 | x8 | z4 A, z A, z | %73
 x8 | x8 | x8 | x8 | x8 | x8 | x8 | x8 | x8 | x8 | x8 | x8 | x8 | x8 | x8 | x8 | x8 | x8 | x8 | %92
 x8 | x8 | x8 | x8 | x8 | x8 | x8 |] %99
V:6
 z8 |"^pizz." A,2 E,2 C,2 A,,2 |"^arco" .A,,.A,,.A,,.A,, .A,,.A,,.A,,.A,, | %3
 .A,,.A,,.A,,.A,, .A,,.A,,.A,,.A,, | .B,,.B,,.B,,.B,, .B,,.B,,.B,,.B,, | %5
 .C,.C,.C,.C, .C,.C,.C,.C, | .D,.D,.D,.D, .E,.E,.E,.E, | .F,.F,.^C,.C, .D,.D,.D,.D, | %8
 .D,.D,.D,.D, .D,.D,._E,.E, |"^pizz." E,2 E,2 _E,2 D,2 |"^arco" .C,.C,.C,.C, .C,.C,.C,.C, | %11
 .C,.C,.C,.C, .C,.C,.C,.C, | .C,.C,.C,.C, .C,.C,.C,.C, | .C,.C,.C,.C, .C,.C,.C,.C, | %14
 .B,,.B,,.B,,.B,, .B,,.B,,.B,,.B,, | ._B,,.B,,.B,,.B,, .B,,.B,,.B,,.B,, | A,,2 z2 z4 | %17
[K:treble]"^pizz." A,A,A,A, G,G,G,G, |[K:bass] ^F,F,F,F, F,F,F,F, | %19
[K:treble] G,G,^F,G, F,G,[K:bass]=F,D, | .E,.G,.E,.C, .B,,.D,.B,,.G,, | %21
 C,[K:treble]G,^F,G, F,G,[K:bass]=F,D, | .E,.G,.E,.C, .B,,.D,.B,,.G,, | %23
 z[K:treble]"^arco" .C.C.C .C.C.C.C | B,4 z4 | z .A,.A,.A, .A,.A,.A,.A, | G,4 z4 | %27
 z[K:bass] .F,.F,.F, .F,.F,.F,.F, | E,2 z2[K:treble] B,2 z2 | C2 z2 z4 | z8 | z4 A,A,A,A, | %32
 F,[K:bass]F,F,F, D,D,D,D, | G,G,G,G, G,,G,,G,,G,, | z[K:treble] .C.C.C .C.C.C.C | B,4 z4 | %36
 z .A,.A,.A, .A,.A,.A,.A, | G,4 z4 | z[K:bass] .F,.F,.F, .F,.F,.F,.F, | E,2 z2[K:treble] B,2 z2 | %40
 C2 z2 z4 | z8 | z4[K:bass] E,E,E,E, | F,F,F,F, ^F,F,F,F, |[K:treble] G,G,G,G, E,[K:bass]E,C,C, | %45
 G,,2 z2 G,,2 z2 | C,2 z2 z2 G,,2 | C,2 z2 z2 G,,2 | C,2[K:treble]"^pizz." A,C F,A,D,[K:bass]F, | %49
 B,,2 C,2 F,,2 G,,2 | C,,2 z2 z4 | z C,D,E, F,E,F,D, | C,2 z2 z4 | z C,D,E, F,E,F,D, | C,2 z2 z4 | %55
 z C,D,E, F,E,F,D, | C,2 z2 z4 | z C,D,E, F,E,F,D, | ^C,C,C,C, C,C,C,C, | ^C,C,C,C, C,C,C,C, | %60
 D,2 z2 z4 | z D,E,F, G,F,G,E, | D,2 z2 z4 | z D,E,F, G,F,G,E, | _E,E,E,E, E,E,E,E, | %65
 _E,E,E,E, E,E,E,E, |"^arco" E,E,^G,E, B,,E,^G,,B,, | E,,2 z2 z4 | E,4 z4 | E,,4 z4 | E,4 z4 | %71
 E,,4 z4 | A,,2 z2[K:treble]"^pizz." .A,2 .A,2 | A,2 z2 .A,2 .A,2 | A,2 z2 .A,2 .A,2 | %75
 A,2 z2 .A,2 .A,2 | A,2 z2 z2 .C2 | .D2 .B,2 .C2 .A,2 | .B,2 .^G,2 A,2 z2 | %79
[K:bass] D,D,D,D, D,D,D,D, | D,D,D,D, D,D,_E,E, |"^arco" E,2 E,2 E,,2 z2 | z2 E,2 E,,2 z2 | %83
 z2 E,2 E,,2 z2 | z8 | z2 D,2 B,,2 A,,2 | ^G,,2 z2 z4 | z2 z (3E,,/^F,,/^G,,/ A,,4 | %88
 z2 z (3^G,,/A,,/B,,/ C,4 | z4 _E,4 |"^pizz." D,D,_E,E, D,D,E,E, | D,2 z2 z4 | %92
 z2 z z/ D,/ D,2 z z/ _E,/ | _E,4 z4 | z8 | z4 E,4 | F,6 ^F,2 | E,2 z2 E,2 z2 | A,,8 |] %99
V:7
 x8 | x8 | x8 | x8 | x8 | x8 | x8 | x8 | x8 | x8 | x8 | x8 | x8 | x8 | x8 | x8 | x8 | %17
[K:treble] x8 |[K:bass] x8 |[K:treble] x6[K:bass] x2 | x8 | x[K:treble] x5[K:bass] x2 | x8 | %23
 C,2[K:treble] z2 z4 | x8 | x8 | x8 | x[K:bass] x7 | x4[K:treble] x4 | x8 | x8 | x8 | %32
 x[K:bass] x7 | x8 | C,2[K:treble] z2 z4 | x8 | x8 | x8 | x[K:bass] x7 | x4[K:treble] x4 | x8 | %41
 x8 | x4[K:bass] x4 | x8 |[K:treble] x5[K:bass] x3 | x8 | x8 | x8 | x2[K:treble] x5[K:bass] x | %49
 x8 | x8 | x8 | x8 | x8 | x8 | x8 | x8 | x8 | x8 | x8 | x8 | x8 | x8 | x8 | x8 | x8 | x8 | x8 | %68
 x8 | x8 | x8 | x8 | x4[K:treble] x4 | x8 | x8 | x8 | x8 | x8 | x8 |[K:bass] x8 | x8 | x8 | x8 | %83
 x8 | x8 | x8 | x8 | x8 | x8 | x8 | x8 | x8 | x8 | x8 | x8 | x8 | x8 | x8 | x8 |] %99

